packages/ffe-icons/icons/filled/md/weather_snowy.svg

<svg xmlns="http://www.w3.org/2000/svg" height="24" viewBox="0 -960 960 960" width="24"><path d="M260-208.462q-17.154 0-29.346-12.192T218.462-250q0-17.154 12.192-29.346T260-291.538q17.154 0 29.346 12.192T301.538-250q0 17.154-12.192 29.346T260-208.462Zm120 120q-17.154 0-29.346-12.192T338.462-130q0-17.154 12.192-29.346T380-171.538q17.154 0 29.346 12.192T421.538-130q0 17.154-12.192 29.346T380-88.462Zm120-120q-17.154 0-29.346-12.192T458.462-250q0-17.154 12.192-29.346T500-291.538q17.154 0 29.346 12.192T541.538-250q0 17.154-12.192 29.346T500-208.462Zm240 0q-17.154 0-29.346-12.192T698.462-250q0-17.154 12.192-29.346T740-291.538q17.154 0 29.346 12.192T781.538-250q0 17.154-12.192 29.346T740-208.462Zm-120 120q-17.154 0-29.346-12.192T578.462-130q0-17.154 12.192-29.346T620-171.538q17.154 0 29.346 12.192T661.538-130q0 17.154-12.192 29.346T620-88.462ZM300-370.001q-87.154 0-148.576-61.423Q90.001-492.846 90.001-580q0-80.307 53.653-139.615 53.654-59.307 133.5-69.154 30.846-56.615 84.423-88.923Q415.154-909.999 480-909.999q88.077 0 152.269 57.307 64.192 57.308 76.269 142.923 71.308 5.231 116.384 54.116Q869.999-606.769 869.999-540q0 70.769-49.615 120.384Q770.769-370.001 700-370.001H300Z"/></svg>

<svg xmlns="http://www.w3.org/2000/svg" height="24" viewBox="0 -960 960 960" width="24"><path d="M260-208.46q-17.15 0-29.35-12.19-12.19-12.2-12.19-29.35 0-17.15 12.19-29.35 12.2-12.19 29.35-12.19 17.15 0 29.35 12.19 12.19 12.2 12.19 29.35 0 17.15-12.19 29.35-12.2 12.19-29.35 12.19Zm120 120q-17.15 0-29.35-12.19-12.19-12.2-12.19-29.35 0-17.15 12.19-29.35 12.2-12.19 29.35-12.19 17.15 0 29.35 12.19 12.19 12.2 12.19 29.35 0 17.15-12.19 29.35-12.2 12.19-29.35 12.19Zm120-120q-17.15 0-29.35-12.19-12.19-12.2-12.19-29.35 0-17.15 12.19-29.35 12.2-12.19 29.35-12.19 17.15 0 29.35 12.19 12.19 12.2 12.19 29.35 0 17.15-12.19 29.35-12.2 12.19-29.35 12.19Zm240 0q-17.15 0-29.35-12.19-12.19-12.2-12.19-29.35 0-17.15 12.19-29.35 12.2-12.19 29.35-12.19 17.15 0 29.35 12.19 12.19 12.2 12.19 29.35 0 17.15-12.19 29.35-12.2 12.19-29.35 12.19Zm-120 120q-17.15 0-29.35-12.19-12.19-12.2-12.19-29.35 0-17.15 12.19-29.35 12.2-12.19 29.35-12.19 17.15 0 29.35 12.19 12.19 12.2 12.19 29.35 0 17.15-12.19 29.35-12.2 12.19-29.35 12.19ZM300-370q-87.15 0-148.58-61.42Q90-492.85 90-580q0-80.31 53.65-139.61 53.66-59.31 133.5-69.16 30.85-56.61 84.43-88.92Q415.15-910 480-910q88.08 0 152.27 57.31 64.19 57.31 76.27 142.92 71.31 5.23 116.38 54.12Q870-606.77 870-540q0 70.77-49.62 120.38Q770.77-370 700-370H300Z"/></svg>
